X:1
T:New River Train
M:4/4
L:1/4
K:G
 D G| B3/2 B/2 G B| d2 B A| G4| z2 D G| B3/2 B/2 G B| d2 c B| A4| z2 B c|\
 d2 B2| G2 A B| c2 c2| c2 B c| d2 d d| B B B A| G4| z2||
